X:76
%%pagewidth 8in
%%vocalfont Baskerville10Pro 15
%%score 1 2
T:Death and the Lady
M:C
L:1/8
K:G
V:1 clef-treble
V:2 clef-bass octave=-1
V:1
(G>A)&B,2|B2>B2[GB]2[EGd]2&[DG]2x6|[EGc]2[DGB]2[DFA]2[B,G]2|[DA]6(G>A)&G4F2x2|
w:DEATH.~Fair* La-dy, lay your cost ly robes a side, No*
V:2
G,2|G6B,2|C2G,2D2E2|D6G2|
V:1
B3B[GB]2[DGd]2&G2x6|[EGc]2[DGB]2A3G&x4[CG]2[DF]2|[B,G]6||(B>c)&[DG]2|d2>B2[B,EG]2[B,FB]2&[DG]2x6|
w:lon ger may you glo ry in your pride; Take* leave of ev'-ry
V:2
E6B,2|C2G,2A,2D,2|(G,4G,,2)||G2|B,4E2D2|
V:1
[EGc]2[DB]2[CFA]2[B,G]2|[DA]6[EG]>[FA]&G4F2D2|B2>B2[B,GB]2[Gd]2&[B,F]2x6|[EGc]2[DGB]2A3G&x4[CG]2[DF]2|[B,G]6||
w:car-nal vain de light, I'm* come to sum-mon you a-way this night.
V:2
C4D2E2|D6D2|^D4E2B,2|C2G,2A,2D,2|G,6||


